build/img/icon__mail.svg

<svg width="17" height="17" viewBox="0 0 17 17" fill="none" xmlns="http://www.w3.org/2000/svg">
<g clip-path="url(#clip0)">
<path d="M7.52832 0.0547988C3.69415 0.482521 0.58013 3.52672 0.0758743 7.35152C-0.638591 12.7716 3.79257 17.3827 9.15988 16.9754C11.1343 16.8256 12.9824 15.9433 14.4304 14.5928L14.5548 14.4768C14.6979 14.3434 14.7057 14.1193 14.5723 13.9763L14.089 13.4581C13.9556 13.315 13.7315 13.3072 13.5884 13.4406L13.3293 13.6822C11.7186 15.1841 9.50752 15.8598 7.27693 15.4799C4.1155 14.9415 1.68516 12.2574 1.4383 9.05998C1.11188 4.8318 4.5225 1.29849 8.70998 1.42018C12.5711 1.53244 15.5833 4.82735 15.5833 8.6901V9.2088C15.5833 10.0367 14.8699 10.7007 14.0254 10.6186C13.2894 10.547 12.75 9.88551 12.75 9.14601V6.02133C12.75 5.8257 12.5914 5.66716 12.3958 5.66716H11.6875C11.5453 5.66716 11.4245 5.75216 11.3682 5.87312C10.6555 5.09573 9.63529 4.60466 8.5 4.60466C6.35183 4.60466 4.60418 6.3523 4.60418 8.50048C4.60418 10.6487 6.35183 12.3963 8.5 12.3963C9.8532 12.3963 11.0464 11.7021 11.745 10.6518C12.271 11.5309 13.2483 12.1102 14.3608 12.0356C15.865 11.9349 17 10.6163 17 9.10879V8.50048C17 3.49351 12.6481 -0.516361 7.52832 0.0547988ZM8.5 10.9797C7.13313 10.9797 6.02083 9.86735 6.02083 8.50048C6.02083 7.13361 7.13313 6.0213 8.5 6.0213C9.86688 6.0213 10.9792 7.13361 10.9792 8.50048C10.9792 9.86735 9.86688 10.9797 8.5 10.9797Z" fill="#0B9EC7"/>
</g>
<defs>
<clipPath id="clip0">
<rect width="17" height="17" fill="white"/>
</clipPath>
</defs>
</svg>

<svg width="17" height="17" fill="none" xmlns="http://www.w3.org/2000/svg"><g clip-path="url(#clip0)"><path d="M7.528.055C3.694.483.58 3.527.076 7.352c-.715 5.42 3.717 10.03 9.084 9.623 1.974-.15 3.822-1.032 5.27-2.382l.125-.116a.354.354 0 00.017-.5l-.483-.519a.354.354 0 00-.5-.017l-.26.241a7.08 7.08 0 01-6.052 1.798c-3.162-.539-5.592-3.223-5.839-6.42-.326-4.228 3.085-7.762 7.272-7.64 3.861.112 6.873 3.407 6.873 7.27v.519c0 .828-.713 1.492-1.558 1.41-.736-.072-1.275-.733-1.275-1.473V6.021a.354.354 0 00-.354-.354h-.709a.352.352 0 00-.319.206A3.882 3.882 0 008.5 4.605 3.9 3.9 0 004.604 8.5 3.9 3.9 0 008.5 12.396a3.894 3.894 0 003.245-1.744 2.821 2.821 0 002.616 1.384C15.865 11.935 17 10.616 17 9.109V8.5C17 3.494 12.648-.516 7.528.055zM8.5 10.98A2.482 2.482 0 016.02 8.5 2.482 2.482 0 018.5 6.021a2.482 2.482 0 012.48 2.48A2.482 2.482 0 018.5 10.98z" fill="#0B9EC7"/></g><defs><clipPath id="clip0"><path fill="#fff" d="M0 0h17v17H0z"/></clipPath></defs></svg>
